dist/svgs/crypto-icons/icons/gemz.svg

<?xml version="1.0" encoding="UTF-8" standalone="yes"?>
<svg xmlns="http://www.w3.org/2000/svg" xmlns:xlink="http://www.w3.org/1999/xlink" width="512px" height="512px" viewBox="0 0 384 384" version="1.1">
  <g id="surface1">
    <path style=" stroke:none;fill-rule:nonzero;fill:rgb(0%,0%,0%);fill-opacity:1;" d="M 103.789062 180.390625 L 278.308594 180.390625 L 191.726562 53.203125 Z M 191.332031 350.78125 L 279.265625 192.242188 L 102.546875 192.242188 Z M 184.5625 42.730469 L 111.714844 42.730469 C 111.714844 42.914062 111.738281 43.09375 111.71875 43.277344 L 100.480469 164.34375 Z M 198.933594 42.730469 L 281.554688 164.101562 L 270.644531 43.265625 C 270.628906 43.085938 270.652344 42.910156 270.652344 42.730469 Z M 293.332031 191.558594 L 206.992188 347.328125 L 379.90625 173.023438 Z M 87.207031 179.105469 L 99.871094 42.730469 L 92.488281 42.730469 L -0.164062 160.078125 Z M 3.398438 172.984375 L 175.828125 347.265625 L 88.605469 191.539062 Z M 294.808594 179.125 L 383.632812 160.109375 L 289.507812 42.730469 L 282.496094 42.730469 Z M 294.808594 179.125 "/>
  </g>
</svg>

<svg xmlns="http://www.w3.org/2000/svg" viewBox="0 0 384 384"><path d="M103.79 180.39h174.519L191.727 53.204zm87.542 170.391l87.934-158.539h-176.72zm-6.77-308.05h-72.847c0 .183.023.363.004.546L100.48 164.344zm14.372 0l82.62 121.37-10.91-120.835c-.015-.18.008-.356.008-.536zm94.398 148.828l-86.34 155.77 172.914-174.306zM87.207 179.105L99.871 42.73h-7.383L-.164 160.078zm-83.809-6.12l172.43 174.28L88.605 191.54zm291.41 6.14l88.825-19.016L289.508 42.73h-7.012zm0 0"/></svg>
